X: 57
T:Liverpool Hornpipe, The
M:4/4
L:1/8
Q:180
R:Hornpipe
K:D
A>G|"D"F>EF>A d>fa>f|"A"g>fe>c d>cB>A|
"G"G2B>G "D"F2A>F|"A"E>DE>F "A7"G>BA>G|
"D"F>DF>A d>fa>f|"A"g>fe>c d>cB>A|
"D"d>fa>f "G"b>g"A"e>c|"D".d2.d2.d2::(3ABc|
"D"d2f->d "A7"c2e->c|"G"B>AB>c "Bm"d>BA>F|
"G"G2B->G "D"F2A->F|"A7"E>DE>F G>BA>G|
"D"F>DF>A "G"d>fa>f|"A"g>fe>c d>cB>A|
"D"d>fa>f "G"b>g"A"e>c|"D".d2.d2.d2:|
